X:1
T:D minor                   Hezekiah Moors, 1809
T:John Gambold, 1742                55. 65.
T:Zaara
T:Transcribed from Province Harmony , 1809; Counter by B. C. Johnston, 2018.
%%score [ 1 2 3 4 ]
L:1/8
Q:1/4=70
M:2/4
K:F
V:1 treble nm="Tr." snm="Tr."
V:2 treble nm="C." snm="C."
V:3 treble-8 nm="T." snm="T."
V:4 bass nm="B." snm="B."
V:1
 A | A2 AA | A2 AG | F2 ED | (D ^C2) C | D2 DE | F2 FB | (BA) AA | !fermata!A3 z || %9
w: |||||||||
w: |||||||||
[M:6/8] z2 z z2 F | AAA AF z | z6 | z2 z z2 G | A3- A2 d | (^cAF A=cA | cAf e3- | e2) ^c ddd | %17
w: The|time for such tri- fles||is|o'er,  _ is|o'er,  _ _ _ _ _|_ _ _ _|* The time for such|
w: To|dwell I'm de- ter- mined||that|hap- * py|ground,  _ _ _ _ _|_ _ _ _|* To dwell I'm de-|
 cAF BAA | A6 |] %19
w: tri- fles With me now is|o'er.|
w: ter- mined On that hap- py|ground.|
V:2
 A | A2 AE | F2 AG | A2 GF | E3 E | F2 FG | F2 FB | BA ^cc | !fermata!A3 z ||[M:6/8] z6 | z6 | %11
w: 1. O|tell me no|more Of this|world's vain *|store; The|time for such|tri- fles For|me * now is|o'er.|||
w: 2. A|coun- try I've|found, Where true|joys a- *|bound; To|dwell I'm de-|ter- mined On|that * hap- py|ground.|||
 z2 z z2 A | AAA AAB | A3- A2 B | (A2 F A F2 | AFA A3- | A2) A BGB | AFF GA F/E/ | D6 |] %19
w: The|time for such tr- fles is|||||||
w: To|dwell I'm de- ter- mined, that|||||||
V:3
 D | D2 DE | F2 FG | A2 GF | (F E2) E | F2 FG | A2 Ad | d^c cc | !fermata!d3 z ||[M:6/8] z6 | %10
w: ||||||||||
w: ||||||||||
 z2 z z2 F | ccc cAA | d3 c2 B | A3- A2 G/B/ | (AFD FAF | AFA ^c3- | c2) A BGG | AFF GE F/E/ | %18
w: The|time for such tri- fles With|me now is|o'er,  _ is *|o'er,  _ _ _ _ _|_ _ _ _|* The time for such|tri- fles With me now is *|
w: To|dwell I'm de- ter- mined To|dwell on that|hap- * py *|ground.  _ _ _ _ _|_ _ _ _|* To dwell I'm de-|ter- mined On that hap- py *|
 D6 |] %19
w: o'er.|
w: ground.|
V:4
 D, | D,2 D,A,, | D,2 D,E, | F,2 C,D, | A,,3 A,, | D,2 D,C, | F,2 F,G, | A,2 A,A, | %8
w: ||||||||
w: ||||||||
 !fermata!D,3 D, ||[M:6/8] F,F,F, F,F, z | z6 | z6 | z2 z z2 E, | F,3- F,2 G, | (A,3- A,3- | %15
w: * 1. The|time for such tri- fles|||is|||
w: * 2. To|dwell I'm de- ter- mined|||that|||
 A,3- A,3- | %16
w: |
w: |
 A,2)"^_______________________________________________________\nEdited by B. C. Johnston, 2018.\n     1. Grace notes replace by normal notes in measures 5 and 8. \n     2. Measure 16, Tenor: last note, C changed to C#.  \n     3. Counter part written." A, DDD | %17
w: |
w: |
 F,F,F, G,A,A, | D,6 |] %19
w: ||
w: ||

